X:1
T:D Major William Billings, 1770
T:Isaac Watts, 1719 (Psalm 33)   88. 88. 88.
T:Braintree No copyright. Edited by B. C. Johnston, 2015. Re-scored from 2/2 to 2/4; lengthened the last note of each line. 
%%score [ 1 2 3 4 ]
L:1/8
M:2/4
K:D
V:1 treble nm="Treble" snm="Tr."
V:2 treble nm="Counter" snm="C."
V:3 treble-8 nm="Tenor" snm="T."
V:4 bass nm="Bass" snm="B."
V:1
 A2 | d2 d2 | B2 e2 | e2 e2 | f4- | f2 d2 | A2 A2 | d2 d2 | (3gfe d2 | e4- | e2 c2 | d2 B2 | %12
 d2 A2 | G2 B2 | e4- | e2 d2 | d2 A2 | B2 d2 | c2 B2 | c4- | c2 c2 | d2 f2 | e2 f2 | B2 c2 | d4- | %25
 d2 A2 | B2 c2 | d2 d2 | g2 e2 | !fermata!f4 |] %30
V:2
 D2 | F2 F2 | (3EFG F2 | G2 E2 | F4- | F2 F2 | F2 E2 | D2 F2 | (3EFG F2 | E4- | E2 E2 | (3FGA G2 | %12
w: 1.~Ye|ho- ly|souls, * * in|God re-|joice,~|* Your|Mak- er's|praise be-|comes * * your|voice;~|* Great|is * * your|
 F2 F2 | G2 G2 | A4- | A2 A2 | G2 E2 | DG AF | GE FD | E4- | E2 E2 | F2 F2 | G2 A2 | G2 E2 | F4- | %25
w: theme, your|songs be|new;~|* Sing|of His|name, * His *|word, * His *|ways,~|* His|works of|na- ture|and of|grace,~|
 F2 F2 | G2 E2 | G2 A2 | B2 A2 | !fermata!A4 |] %30
w: * How|wise and|ho- ly,|just and|true!|
V:3
 A2 | A2 F2 | G2 A2 | B2 G2 | A4- | A2 A2 | d2 c2 | B2 A2 | G2 F2 | A4- | A2 A2 | F2 G2 | A2 d2 | %13
 c2 B2 | A4- | A2 A2 | B2 c2 | d2 A2 | G2 F2 | E4- | E2 A2 | A2 d2 | c2 d2 | B2 A2 | d4- | d2 d2 | %26
 d2 c2 | B2 A2 | B2 c2 | !fermata!d4 |] %30
V:4
 D,2 | D,2 D,2 | E,2 F,2 | E,2 E,2 | D,4- | D,2 D,2 | D,2 A,2 | G,2 F,2 | E,2 D,2 | A,,4- | %10
 A,,2 A,,2 | D,2 E,2 | D,2 D,2 | E,2 E,2 | A,,4- | A,,2 D,2 | G,2 A,2 | G,2 F,2 | E,2 D,2 | A,,4- | %20
 A,,2 A,,2 | D,2 D,2 | E,2 F,2 | (3E,F,G, A,2 | D,4- | D,2 D,2 | G,2 A,2 | G,2 F,2 | G,2 A,2 | %29
 !fermata!D,4 |] %30

